X: 100394
T: LA ENFANT VALSE
R: waltz
B: K\"ohler's Violin Repository, v.3, 1885 p.257 #1
F: http://www.archive.org/details/klersviolinrepos03rugg
Z: 2012 John Chambers <jc:trillian.mit.edu>
N: Yes, the French title is grammatically incorrect.
N: Part 1's 3rd section has two endings, but no initial repeat.
M: 3/4
L: 1/8
K: F
P: 1.
[|\
vA2B2c2 | c2d2e2 | (f2a3g) | f6 |\
f2e2d2 | (d2^c2d2) | (.e4.e2) | A6 |\
(e3fe2) | (d2^c2d2) | (e3fe2) | a6 |
(a2g2e2) | (f2d2A2) | (f4e2) | d6 |\
(ve3fe2) | a6 | (e3fe2) | d6 |\
(d2B2G2) | (F2A2d2) | (d4^c2) | d6 |]
|:\
vd6 | (e2f2e2) | d6 | a6 |\
b6 | (b2a2^g2) | a6- | a4z2 |\
vb6 | (b2a2^g2) | va6 | (a2g2f2) |
[1 (e4f2) | (e4f2) | e6 | a6 :|\
[2 e6 | a6 | d6- | d4z2 \
[|:\
v(A4B2) | (A4G2) | (G4^F2) | G6 |\
(G4d2) | (d4^c2) | d6- | d4z2 |
(v_e2d2^c2) | (d2c2B2 ) | (c2B2A2) | (B2A2G2) |\
[1 (G2^F2G2) | (G2^F2G2) | A6 | D6 :|\
[2 (D4B2) | (A4d2) | G6- | G2z2z2 "_D.C."|]
K: D
P: 2.
|:\
vF6 | (A4d2) | (f4g2) | f6 |\
F6 | (A4d2) | (f4d2) | A6 |\
(G2e4) | e6 | (F2d4) | d6 |\
[1 (E2c4) | c6 | (d2A4) | A6 :|\
[2 (c2f4) | (f4e2) | d6- | d2z2z2 |]
va6 | (b4a2) | (c4d2) | c6 |\
a6 | (b4a2) | (d4e2) | d6 |\
a6 | (b4a2) | (a4g2) | (g4f2) |\
(f4e2) | (e4d2) | (d4c2) | (B4A2) |
a6 | (b4a2) | (c4d2) | c6 |\
a6 | (b4a2) | (d4e2) | d6 |\
(a4g2) | (g4f2) | (f4e2) | (B4e2) |\
(d4c2) | (B4c2) | d6- | d2z2z2 "^D.C."|]

%%sep 2 1 500

